app/images/meet-icon.svg

<svg width="72" height="73" viewBox="0 0 72 73" fill="none" xmlns="http://www.w3.org/2000/svg">
<path d="M41.8581 22.0588L48.8208 15.0925C47.9971 14.269 47.3891 13.255 47.0508 12.1404C46.7125 11.0259 46.6543 9.84505 46.8813 8.7026C47.1083 7.56014 47.6136 6.49131 48.3523 5.59076C49.0911 4.69021 50.0405 3.98575 51.1166 3.53977C52.1926 3.09379 53.362 2.92005 54.5212 3.03395C55.6804 3.14784 56.7937 3.54586 57.7623 4.19274C58.731 4.83962 59.5252 5.7154 60.0745 6.7425C60.6239 7.76961 60.9114 8.91635 60.9118 10.0811C62.0769 10.0803 63.2242 10.3669 64.252 10.9155C65.2799 11.4641 66.1565 12.2578 66.8043 13.2262C67.4521 14.1946 67.851 15.3079 67.9656 16.4673C68.0803 17.6267 67.9072 18.7965 67.4616 19.8731C67.016 20.9496 66.3118 21.8996 65.4113 22.6389C64.5108 23.3782 63.4418 23.8839 62.2991 24.1113C61.1565 24.3387 59.9753 24.2806 58.8604 23.9424C57.7455 23.6041 56.7312 22.9961 55.9075 22.1721L49.4618 28.6213" stroke="#A61D1D" stroke-width="5" stroke-linecap="round" stroke-linejoin="round"/>
<path d="M14.5299 58.2338C24.2115 67.9154 35.4235 72.4002 39.5727 68.2509C43.7219 64.1017 39.2371 52.8897 29.5556 43.2082C19.8741 33.5266 8.66206 29.0418 4.51283 33.1911C0.363608 37.3403 4.84842 48.5523 14.5299 58.2338Z" stroke="#A61D1D" stroke-width="5" stroke-linecap="round" stroke-linejoin="round"/>
<path d="M39.5737 68.2524C53.4036 54.419 56.7681 35.3582 47.0854 25.679C37.4063 15.9963 18.3455 19.3608 4.51558 33.1907M20.1835 49.0393L23.7251 52.5809L20.1835 49.0393Z" stroke="#A61D1D" stroke-width="5" stroke-linecap="round" stroke-linejoin="round"/>
</svg>

<svg width="72" height="73" fill="none" xmlns="http://www.w3.org/2000/svg"><path d="m41.858 22.059 6.963-6.967a7.084 7.084 0 1 1 12.09-5.01 7.083 7.083 0 1 1-5.004 12.09l-6.445 6.45M14.53 58.234C24.212 67.915 35.423 72.4 39.573 68.25c4.149-4.15-.336-15.361-10.017-25.043C19.874 33.526 8.662 29.041 4.513 33.19c-4.15 4.15.335 15.361 10.017 25.043Z" stroke="#A61D1D" stroke-width="5" stroke-linecap="round" stroke-linejoin="round"/><path d="M39.574 68.252c13.83-13.833 17.194-32.894 7.511-42.573-9.679-9.683-28.74-6.318-42.57 7.512m15.668 15.848 3.542 3.542-3.542-3.542Z" stroke="#A61D1D" stroke-width="5" stroke-linecap="round" stroke-linejoin="round"/></svg>
